report_00007_2020-12-11T15:55:29.892Z/server-response-time/comparison/line/12_vs_13.svg

<svg width="640" height="500" xmlns="http://www.w3.org/2000/svg" xmlns:xlink="http://www.w3.org/1999/xlink"><path fill="#fff" d="M0 0h640v500H0z"/><defs><path id="d" stroke-width=".222" stroke="currentColor" d="M-1-1h2v2h-2z"/><path id="b" stroke-width=".222" stroke="currentColor" d="M0-1.33l-1.33 2h2.66z"/><path id="f" stroke-width=".222" stroke="currentColor" d="M0 1.33L1.265.411.782-1.067l-1.564-.009-.483 1.487z"/><use xlink:href="#b" id="c" stroke="currentColor" transform="rotate(180)"/><use xlink:href="#d" id="e" stroke="currentColor" transform="rotate(45)"/><circle id="a" stroke-width=".222" stroke="currentColor" cx="0" cy="0" r="1"/></defs><g fill="none" color="#000" stroke="currentColor"><path stroke="#000" d="M53.9 390.3h9m552.1 0h-9"/><text transform="translate(45.6 394.2)" stroke="none" fill="#000" font-family="Arial" font-size="12" text-anchor="end"><tspan>1.4</tspan></text></g><g fill="none" color="#000" stroke="currentColor"><path stroke="#000" d="M53.9 347.2h9m552.1 0h-9"/><text transform="translate(45.6 351.1)" stroke="none" fill="#000" font-family="Arial" font-size="12" text-anchor="end"><tspan>1.6</tspan></text></g><g fill="none" color="#000" stroke="currentColor"><path stroke="#000" d="M53.9 304h9m552.1 0h-9"/><text transform="translate(45.6 307.9)" stroke="none" fill="#000" font-family="Arial" font-size="12" text-anchor="end"><tspan>1.8</tspan></text></g><g fill="none" color="#000" stroke="currentColor"><path stroke="#000" d="M53.9 260.8h9m552.1 0h-9"/><text transform="translate(45.6 264.7)" stroke="none" fill="#000" font-family="Arial" font-size="12" text-anchor="end"><tspan>2</tspan></text></g><g fill="none" color="#000" stroke="currentColor"><path stroke="#000" d="M53.9 217.7h9m552.1 0h-9"/><text transform="translate(45.6 221.6)" stroke="none" fill="#000" font-family="Arial" font-size="12" text-anchor="end"><tspan>2.2</tspan></text></g><g fill="none" color="#000" stroke="currentColor"><path stroke="#000" d="M53.9 174.5h9m552.1 0h-9"/><text transform="translate(45.6 178.4)" stroke="none" fill="#000" font-family="Arial" font-size="12" text-anchor="end"><tspan>2.4</tspan></text></g><g fill="none" color="#000" stroke="currentColor"><path stroke="#000" d="M53.9 131.3h9m552.1 0h-9"/><text transform="translate(45.6 135.2)" stroke="none" fill="#000" font-family="Arial" font-size="12" text-anchor="end"><tspan>2.6</tspan></text></g><g fill="none" color="#000" stroke="currentColor"><path stroke="#000" d="M53.9 88.1h9m552.1 0h-9"/><text transform="translate(45.6 92)" stroke="none" fill="#000" font-family="Arial" font-size="12" text-anchor="end"><tspan>2.8</tspan></text></g><g fill="none" color="#000" stroke="currentColor"><path stroke="#000" d="M53.9 45h9M615 45h-9"/><text transform="translate(45.6 48.9)" stroke="none" fill="#000" font-family="Arial" font-size="12" text-anchor="end"><tspan>3</tspan></text></g><g fill="none" color="#000" stroke="currentColor"><path stroke="#000" d="M53.9 428v-9m0-400.9v9"/><text transform="translate(53.9 449.9)" stroke="none" fill="#000" font-family="Arial" font-size="12" text-anchor="middle"><tspan>0</tspan></text></g><g fill="none" color="#000" stroke="currentColor"><path stroke="#000" d="M110.6 428v-9m0-400.9v9"/><text transform="translate(110.6 449.9)" stroke="none" fill="#000" font-family="Arial" font-size="12" text-anchor="middle"><tspan>10</tspan></text></g><g fill="none" color="#000" stroke="currentColor"><path stroke="#000" d="M167.3 428v-9m0-400.9v9"/><text transform="translate(167.3 449.9)" stroke="none" fill="#000" font-family="Arial" font-size="12" text-anchor="middle"><tspan>20</tspan></text></g><g fill="none" color="#000" stroke="currentColor"><path stroke="#000" d="M223.9 428v-9m0-400.9v9"/><text transform="translate(223.9 449.9)" stroke="none" fill="#000" font-family="Arial" font-size="12" text-anchor="middle"><tspan>30</tspan></text></g><g fill="none" color="#000" stroke="currentColor"><path stroke="#000" d="M280.6 428v-9m0-400.9v9"/><text transform="translate(280.6 449.9)" stroke="none" fill="#000" font-family="Arial" font-size="12" text-anchor="middle"><tspan>40</tspan></text></g><g fill="none" color="#000" stroke="currentColor"><path stroke="#000" d="M337.3 428v-9m0-400.9v9"/><text transform="translate(337.3 449.9)" stroke="none" fill="#000" font-family="Arial" font-size="12" text-anchor="middle"><tspan>50</tspan></text></g><g fill="none" color="#000" stroke="currentColor"><path stroke="#000" d="M394 428v-9m0-400.9v9"/><text transform="translate(394 449.9)" stroke="none" fill="#000" font-family="Arial" font-size="12" text-anchor="middle"><tspan>60</tspan></text></g><g fill="none" color="#000" stroke="currentColor"><path stroke="#000" d="M450.6 428v-9m0-400.9v9"/><text transform="translate(450.6 449.9)" stroke="none" fill="#000" font-family="Arial" font-size="12" text-anchor="middle"><tspan>70</tspan></text></g><g fill="none" color="#000" stroke="currentColor"><path stroke="#000" d="M507.3 428v-9m0-400.9v9"/><text transform="translate(507.3 449.9)" stroke="none" fill="#000" font-family="Arial" font-size="12" text-anchor="middle"><tspan>80</tspan></text></g><g fill="none" color="#000" stroke="currentColor"><path stroke="#000" d="M564 428v-9m0-400.9v9"/><text transform="translate(564 449.9)" stroke="none" fill="#000" font-family="Arial" font-size="12" text-anchor="middle"><tspan>90</tspan></text></g><path stroke="#000" d="M53.9 18.1V428H615V18.1H53.9z" fill="none" color="#000"/><text transform="translate(529.1 467.9)" stroke="none" fill="#000" font-family="Arial" font-size="12" text-anchor="end" color="#000"><tspan>pages+cached+noexternal+nofonts+nosvg+noimg+nocss</tspan></text><path stroke="#9400D3" d="M537.4 464h42.2M53.9 265.1l5.7 94.4 5.6 22.6 5.7-67.7 5.7-95.7 5.6-9 5.7 173.9 5.7-26.5 5.6-59.8 5.7-56.8 5.7-23.7 5.6 182.6 5.7-60.9 5.7-55.7 5.6 130.2 5.7-17.1 5.7-79.4 5.7 5 5.6 1.1 5.7 49 5.7 43.3 5.6-86.3 5.7 9.9 5.7-54.6 5.6 29.8 5.7-3.2 5.7 92.1 5.6-79.2 5.7-81.1 5.7 130.5 5.6 40 5.7-135.8 5.7 50.1 5.6 65.8 5.7-106.8 5.7 31.3 5.6 27 5.7-55.7 5.7 93.9 5.6 7.9 5.7-56.5 5.7-26.8 5.6 99.3 5.7-6.5 5.7-137.7 5.6 71 5.7-60.8 5.7 57.4 5.6-35 5.7 83.1 5.7-237.6 5.7 164 5.6 30.9 5.7-117.4 5.7 184.5 5.6 13.8 5.7-141.8 5.7 144 5.6-24.4 5.7-71.4 5.7 70.8 5.6 2.3 5.7-151.3 5.7 143.8 5.6 28.7 5.7-182.8 5.7 66.2 5.6-88.9 5.7 183.5 5.7-70.4 5.6 50.7 5.7 13.6 5.7-145.7 5.6 133.2 5.7 16.6 5.7-83.3 5.6-2.4 5.7-1.7 5.7-35.8 5.6 150.4 5.7-46L513 326l5.6-75.8 5.7 76.7 5.7-164.3 5.7 208.1 5.6-88.1L547 358l5.7 28.4 5.6-110.9 5.7 47.7 5.7-14.9 5.6-19.4 5.7-13.2 5.7 58.3 5.6-36.9 5.7 102.1 5.7-131.9 5.6 108.8 5.7.6" fill="none" color="#000"/><text transform="translate(529.1 485.9)" stroke="none" fill="#000" font-family="Arial" font-size="12" text-anchor="end" color="#000"><tspan>pages+cached+noexternal+nofonts+nosvg+noimg+nocss+nojs</tspan></text><path stroke="#009E73" d="M537.4 482h42.2M53.9 294.5l5.7 31.7 5.6-30 5.7 16.4 5.7 86.6 5.6-103.6 5.7 102.1 5.7-4.8 5.6-89.8 5.7 58.5 5.7 47.9 5.6-98.6 5.7 77.7 5.7 7.1 5.6-145.9 5.7 169 5.7-38.8 5.7-111 5.6 104.1 5.7 33.2L167.3 26l5.6 383.1 5.7-99.5 5.7 19.9 5.6 35.1 5.7 33.7 5.7-89.8 5.6 101.5 5.7-71.3 5.7-184.1 5.6 170.8 5.7 71.2 5.7-80.1 5.6 57.2 5.7 29.6 5.7-74.9 5.6 72.9 5.7-14.4 5.7-47.7 5.6 69.9 5.7-10.8 5.7-85.2 5.6 77 5.7-46 5.7-121.3 5.6 73.4 5.7 61.3 5.7-55.2 5.6 114.4 5.7-46.4 5.7-81L343 400l5.6-17.7 5.7-121 5.7 10.1 5.6 136.6 5.7-11.4 5.7-190.8 5.6 192.3 5.7-55 5.7-26.8 5.6 87.4 5.7 14.5 5.7-84.4 5.6 29.8 5.7 37.7 5.7-204.8 5.6 130.4 5.7 55.2 5.7-146.7 5.6 163.3 5.7 2.2L462 310l5.6 79.9 5.7-35.4 5.7-141.4 5.6 158.9 5.7 25.2 5.7-224 5.6 198.6 5.7 23.1 5.7-176.4 5.6 182.4 5.7-95 5.7-56.5 5.7 159.9 5.6-25.9L547 301l5.7 88 5.6-36.4 5.7-10.8 5.7-17.7 5.6 83.3 5.7-74.7 5.7-39.3 5.6 51.4 5.7.9 5.7-48.4 5.6 96.7 5.7-79.4" fill="none" color="#000"/><g fill="none" color="#000" stroke="currentColor"><path stroke="#000" d="M53.9 18.1V428H615V18.1H53.9z"/></g></svg>

<?xml version="1.0" encoding="utf-8"  standalone="no"?>
<svg 
 width="640" height="500"
 viewBox="0 0 640 500"
 xmlns="http://www.w3.org/2000/svg"
 xmlns:xlink="http://www.w3.org/1999/xlink"
>

<title>Gnuplot</title>
<desc>Produced by GNUPLOT 5.4 patchlevel 0 </desc>

<g id="gnuplot_canvas">

<rect x="0" y="0" width="640" height="500" fill="#ffffff"/>
<defs>

	<circle id='gpDot' r='0.5' stroke-width='0.5' stroke='currentColor'/>
	<path id='gpPt0' stroke-width='0.222' stroke='currentColor' d='M-1,0 h2 M0,-1 v2'/>
	<path id='gpPt1' stroke-width='0.222' stroke='currentColor' d='M-1,-1 L1,1 M1,-1 L-1,1'/>
	<path id='gpPt2' stroke-width='0.222' stroke='currentColor' d='M-1,0 L1,0 M0,-1 L0,1 M-1,-1 L1,1 M-1,1 L1,-1'/>
	<rect id='gpPt3' stroke-width='0.222' stroke='currentColor' x='-1' y='-1' width='2' height='2'/>
	<rect id='gpPt4' stroke-width='0.222' stroke='currentColor' fill='currentColor' x='-1' y='-1' width='2' height='2'/>
	<circle id='gpPt5' stroke-width='0.222' stroke='currentColor' cx='0' cy='0' r='1'/>
	<use xlink:href='#gpPt5' id='gpPt6' fill='currentColor' stroke='none'/>
	<path id='gpPt7' stroke-width='0.222' stroke='currentColor' d='M0,-1.33 L-1.33,0.67 L1.33,0.67 z'/>
	<use xlink:href='#gpPt7' id='gpPt8' fill='currentColor' stroke='none'/>
	<use xlink:href='#gpPt7' id='gpPt9' stroke='currentColor' transform='rotate(180)'/>
	<use xlink:href='#gpPt9' id='gpPt10' fill='currentColor' stroke='none'/>
	<use xlink:href='#gpPt3' id='gpPt11' stroke='currentColor' transform='rotate(45)'/>
	<use xlink:href='#gpPt11' id='gpPt12' fill='currentColor' stroke='none'/>
	<path id='gpPt13' stroke-width='0.222' stroke='currentColor' d='M0,1.330 L1.265,0.411 L0.782,-1.067 L-0.782,-1.076 L-1.265,0.411 z'/>
	<use xlink:href='#gpPt13' id='gpPt14' fill='currentColor' stroke='none'/>
	<filter id='textbox' filterUnits='objectBoundingBox' x='0' y='0' height='1' width='1'>
	  <feFlood flood-color='#FFFFFF' flood-opacity='1' result='bgnd'/>
	  <feComposite in='SourceGraphic' in2='bgnd' operator='atop'/>
	</filter>
	<filter id='greybox' filterUnits='objectBoundingBox' x='0' y='0' height='1' width='1'>
	  <feFlood flood-color='lightgrey' flood-opacity='1' result='grey'/>
	  <feComposite in='SourceGraphic' in2='grey' operator='atop'/>
	</filter>
</defs>
<g fill="none" color="#FFFFFF" stroke="black" stroke-width="1.00" stroke-linecap="butt" stroke-linejoin="miter">
</g>
<g fill="none" color="black" stroke="currentColor" stroke-width="1.00" stroke-linecap="butt" stroke-linejoin="miter">
	<path stroke='black'  d='M53.9,390.3 L62.9,390.3 M615.0,390.3 L606.0,390.3  '/>	<g transform="translate(45.6,394.2)" stroke="none" fill="black" font-family="Arial" font-size="12.00"  text-anchor="end">
		<text><tspan font-family="Arial" > 1.4</tspan></text>
	</g>
</g>
<g fill="none" color="black" stroke="currentColor" stroke-width="1.00" stroke-linecap="butt" stroke-linejoin="miter">
	<path stroke='black'  d='M53.9,347.2 L62.9,347.2 M615.0,347.2 L606.0,347.2  '/>	<g transform="translate(45.6,351.1)" stroke="none" fill="black" font-family="Arial" font-size="12.00"  text-anchor="end">
		<text><tspan font-family="Arial" > 1.6</tspan></text>
	</g>
</g>
<g fill="none" color="black" stroke="currentColor" stroke-width="1.00" stroke-linecap="butt" stroke-linejoin="miter">
	<path stroke='black'  d='M53.9,304.0 L62.9,304.0 M615.0,304.0 L606.0,304.0  '/>	<g transform="translate(45.6,307.9)" stroke="none" fill="black" font-family="Arial" font-size="12.00"  text-anchor="end">
		<text><tspan font-family="Arial" > 1.8</tspan></text>
	</g>
</g>
<g fill="none" color="black" stroke="currentColor" stroke-width="1.00" stroke-linecap="butt" stroke-linejoin="miter">
	<path stroke='black'  d='M53.9,260.8 L62.9,260.8 M615.0,260.8 L606.0,260.8  '/>	<g transform="translate(45.6,264.7)" stroke="none" fill="black" font-family="Arial" font-size="12.00"  text-anchor="end">
		<text><tspan font-family="Arial" > 2</tspan></text>
	</g>
</g>
<g fill="none" color="black" stroke="currentColor" stroke-width="1.00" stroke-linecap="butt" stroke-linejoin="miter">
	<path stroke='black'  d='M53.9,217.7 L62.9,217.7 M615.0,217.7 L606.0,217.7  '/>	<g transform="translate(45.6,221.6)" stroke="none" fill="black" font-family="Arial" font-size="12.00"  text-anchor="end">
		<text><tspan font-family="Arial" > 2.2</tspan></text>
	</g>
</g>
<g fill="none" color="black" stroke="currentColor" stroke-width="1.00" stroke-linecap="butt" stroke-linejoin="miter">
	<path stroke='black'  d='M53.9,174.5 L62.9,174.5 M615.0,174.5 L606.0,174.5  '/>	<g transform="translate(45.6,178.4)" stroke="none" fill="black" font-family="Arial" font-size="12.00"  text-anchor="end">
		<text><tspan font-family="Arial" > 2.4</tspan></text>
	</g>
</g>
<g fill="none" color="black" stroke="currentColor" stroke-width="1.00" stroke-linecap="butt" stroke-linejoin="miter">
	<path stroke='black'  d='M53.9,131.3 L62.9,131.3 M615.0,131.3 L606.0,131.3  '/>	<g transform="translate(45.6,135.2)" stroke="none" fill="black" font-family="Arial" font-size="12.00"  text-anchor="end">
		<text><tspan font-family="Arial" > 2.6</tspan></text>
	</g>
</g>
<g fill="none" color="black" stroke="currentColor" stroke-width="1.00" stroke-linecap="butt" stroke-linejoin="miter">
	<path stroke='black'  d='M53.9,88.1 L62.9,88.1 M615.0,88.1 L606.0,88.1  '/>	<g transform="translate(45.6,92.0)" stroke="none" fill="black" font-family="Arial" font-size="12.00"  text-anchor="end">
		<text><tspan font-family="Arial" > 2.8</tspan></text>
	</g>
</g>
<g fill="none" color="black" stroke="currentColor" stroke-width="1.00" stroke-linecap="butt" stroke-linejoin="miter">
	<path stroke='black'  d='M53.9,45.0 L62.9,45.0 M615.0,45.0 L606.0,45.0  '/>	<g transform="translate(45.6,48.9)" stroke="none" fill="black" font-family="Arial" font-size="12.00"  text-anchor="end">
		<text><tspan font-family="Arial" > 3</tspan></text>
	</g>
</g>
<g fill="none" color="black" stroke="currentColor" stroke-width="1.00" stroke-linecap="butt" stroke-linejoin="miter">
	<path stroke='black'  d='M53.9,428.0 L53.9,419.0 M53.9,18.1 L53.9,27.1  '/>	<g transform="translate(53.9,449.9)" stroke="none" fill="black" font-family="Arial" font-size="12.00"  text-anchor="middle">
		<text><tspan font-family="Arial" > 0</tspan></text>
	</g>
</g>
<g fill="none" color="black" stroke="currentColor" stroke-width="1.00" stroke-linecap="butt" stroke-linejoin="miter">
	<path stroke='black'  d='M110.6,428.0 L110.6,419.0 M110.6,18.1 L110.6,27.1  '/>	<g transform="translate(110.6,449.9)" stroke="none" fill="black" font-family="Arial" font-size="12.00"  text-anchor="middle">
		<text><tspan font-family="Arial" > 10</tspan></text>
	</g>
</g>
<g fill="none" color="black" stroke="currentColor" stroke-width="1.00" stroke-linecap="butt" stroke-linejoin="miter">
	<path stroke='black'  d='M167.3,428.0 L167.3,419.0 M167.3,18.1 L167.3,27.1  '/>	<g transform="translate(167.3,449.9)" stroke="none" fill="black" font-family="Arial" font-size="12.00"  text-anchor="middle">
		<text><tspan font-family="Arial" > 20</tspan></text>
	</g>
</g>
<g fill="none" color="black" stroke="currentColor" stroke-width="1.00" stroke-linecap="butt" stroke-linejoin="miter">
	<path stroke='black'  d='M223.9,428.0 L223.9,419.0 M223.9,18.1 L223.9,27.1  '/>	<g transform="translate(223.9,449.9)" stroke="none" fill="black" font-family="Arial" font-size="12.00"  text-anchor="middle">
		<text><tspan font-family="Arial" > 30</tspan></text>
	</g>
</g>
<g fill="none" color="black" stroke="currentColor" stroke-width="1.00" stroke-linecap="butt" stroke-linejoin="miter">
	<path stroke='black'  d='M280.6,428.0 L280.6,419.0 M280.6,18.1 L280.6,27.1  '/>	<g transform="translate(280.6,449.9)" stroke="none" fill="black" font-family="Arial" font-size="12.00"  text-anchor="middle">
		<text><tspan font-family="Arial" > 40</tspan></text>
	</g>
</g>
<g fill="none" color="black" stroke="currentColor" stroke-width="1.00" stroke-linecap="butt" stroke-linejoin="miter">
	<path stroke='black'  d='M337.3,428.0 L337.3,419.0 M337.3,18.1 L337.3,27.1  '/>	<g transform="translate(337.3,449.9)" stroke="none" fill="black" font-family="Arial" font-size="12.00"  text-anchor="middle">
		<text><tspan font-family="Arial" > 50</tspan></text>
	</g>
</g>
<g fill="none" color="black" stroke="currentColor" stroke-width="1.00" stroke-linecap="butt" stroke-linejoin="miter">
	<path stroke='black'  d='M394.0,428.0 L394.0,419.0 M394.0,18.1 L394.0,27.1  '/>	<g transform="translate(394.0,449.9)" stroke="none" fill="black" font-family="Arial" font-size="12.00"  text-anchor="middle">
		<text><tspan font-family="Arial" > 60</tspan></text>
	</g>
</g>
<g fill="none" color="black" stroke="currentColor" stroke-width="1.00" stroke-linecap="butt" stroke-linejoin="miter">
	<path stroke='black'  d='M450.6,428.0 L450.6,419.0 M450.6,18.1 L450.6,27.1  '/>	<g transform="translate(450.6,449.9)" stroke="none" fill="black" font-family="Arial" font-size="12.00"  text-anchor="middle">
		<text><tspan font-family="Arial" > 70</tspan></text>
	</g>
</g>
<g fill="none" color="black" stroke="currentColor" stroke-width="1.00" stroke-linecap="butt" stroke-linejoin="miter">
	<path stroke='black'  d='M507.3,428.0 L507.3,419.0 M507.3,18.1 L507.3,27.1  '/>	<g transform="translate(507.3,449.9)" stroke="none" fill="black" font-family="Arial" font-size="12.00"  text-anchor="middle">
		<text><tspan font-family="Arial" > 80</tspan></text>
	</g>
</g>
<g fill="none" color="black" stroke="currentColor" stroke-width="1.00" stroke-linecap="butt" stroke-linejoin="miter">
	<path stroke='black'  d='M564.0,428.0 L564.0,419.0 M564.0,18.1 L564.0,27.1  '/>	<g transform="translate(564.0,449.9)" stroke="none" fill="black" font-family="Arial" font-size="12.00"  text-anchor="middle">
		<text><tspan font-family="Arial" > 90</tspan></text>
	</g>
</g>
<g fill="none" color="black" stroke="currentColor" stroke-width="1.00" stroke-linecap="butt" stroke-linejoin="miter">
</g>
<g fill="none" color="black" stroke="currentColor" stroke-width="1.00" stroke-linecap="butt" stroke-linejoin="miter">
	<path stroke='black'  d='M53.9,18.1 L53.9,428.0 L615.0,428.0 L615.0,18.1 L53.9,18.1 Z  '/></g>
<g fill="none" color="black" stroke="currentColor" stroke-width="1.00" stroke-linecap="butt" stroke-linejoin="miter">
</g>
	<g id="gnuplot_plot_1" ><title>pages+cached+noexternal+nofonts+nosvg+noimg+nocss</title>
<g fill="none" color="black" stroke="currentColor" stroke-width="1.00" stroke-linecap="butt" stroke-linejoin="miter">
	<g transform="translate(529.1,467.9)" stroke="none" fill="black" font-family="Arial" font-size="12.00"  text-anchor="end">
		<text><tspan font-family="Arial" >pages+cached+noexternal+nofonts+nosvg+noimg+nocss</tspan></text>
	</g>
</g>
<g fill="none" color="black" stroke="currentColor" stroke-width="1.00" stroke-linecap="butt" stroke-linejoin="miter">
	<path stroke='rgb(148,   0, 211)'  d='M537.4,464.0 L579.6,464.0 M53.9,265.1 L59.6,359.5 L65.2,382.1 L70.9,314.4 L76.6,218.7 L82.2,209.7
		L87.9,383.6 L93.6,357.1 L99.2,297.3 L104.9,240.5 L110.6,216.8 L116.2,399.4 L121.9,338.5 L127.6,282.8
		L133.2,413.0 L138.9,395.9 L144.6,316.5 L150.3,321.5 L155.9,322.6 L161.6,371.6 L167.3,414.9 L172.9,328.6
		L178.6,338.5 L184.3,283.9 L189.9,313.7 L195.6,310.5 L201.3,402.6 L206.9,323.4 L212.6,242.3 L218.3,372.8
		L223.9,412.8 L229.6,277.0 L235.3,327.1 L240.9,392.9 L246.6,286.1 L252.3,317.4 L257.9,344.4 L263.6,288.7
		L269.3,382.6 L274.9,390.5 L280.6,334.0 L286.3,307.2 L291.9,406.5 L297.6,400.0 L303.3,262.3 L308.9,333.3
		L314.6,272.5 L320.3,329.9 L325.9,294.9 L331.6,378.0 L337.3,140.4 L343.0,304.4 L348.6,335.3 L354.3,217.9
		L360.0,402.4 L365.6,416.2 L371.3,274.4 L377.0,418.4 L382.6,394.0 L388.3,322.6 L394.0,393.4 L399.6,395.7
		L405.3,244.4 L411.0,388.2 L416.6,416.9 L422.3,234.1 L428.0,300.3 L433.6,211.4 L439.3,394.9 L445.0,324.5
		L450.6,375.2 L456.3,388.8 L462.0,243.1 L467.6,376.3 L473.3,392.9 L479.0,309.6 L484.6,307.2 L490.3,305.5
		L496.0,269.7 L501.6,420.1 L507.3,374.1 L513.0,326.0 L518.6,250.2 L524.3,326.9 L530.0,162.6 L535.7,370.7
		L541.3,282.6 L547.0,358.0 L552.7,386.4 L558.3,275.5 L564.0,323.2 L569.7,308.3 L575.3,288.9 L581.0,275.7
		L586.7,334.0 L592.3,297.1 L598.0,399.2 L603.7,267.3 L609.3,376.1 L615.0,376.7  '/></g>
	</g>
	<g id="gnuplot_plot_2" ><title>pages+cached+noexternal+nofonts+nosvg+noimg+nocss+nojs</title>
<g fill="none" color="black" stroke="currentColor" stroke-width="1.00" stroke-linecap="butt" stroke-linejoin="miter">
	<g transform="translate(529.1,485.9)" stroke="none" fill="black" font-family="Arial" font-size="12.00"  text-anchor="end">
		<text><tspan font-family="Arial" >pages+cached+noexternal+nofonts+nosvg+noimg+nocss+nojs</tspan></text>
	</g>
</g>
<g fill="none" color="black" stroke="currentColor" stroke-width="1.00" stroke-linecap="butt" stroke-linejoin="miter">
	<path stroke='rgb(  0, 158, 115)'  d='M537.4,482.0 L579.6,482.0 M53.9,294.5 L59.6,326.2 L65.2,296.2 L70.9,312.6 L76.6,399.2 L82.2,295.6
		L87.9,397.7 L93.6,392.9 L99.2,303.1 L104.9,361.6 L110.6,409.5 L116.2,310.9 L121.9,388.6 L127.6,395.7
		L133.2,249.8 L138.9,418.8 L144.6,380.0 L150.3,269.0 L155.9,373.1 L161.6,406.3 L167.3,26.0 L172.9,409.1
		L178.6,309.6 L184.3,329.5 L189.9,364.6 L195.6,398.3 L201.3,308.5 L206.9,410.0 L212.6,338.7 L218.3,154.6
		L223.9,325.4 L229.6,396.6 L235.3,316.5 L240.9,373.7 L246.6,403.3 L252.3,328.4 L257.9,401.3 L263.6,386.9
		L269.3,339.2 L274.9,409.1 L280.6,398.3 L286.3,313.1 L291.9,390.1 L297.6,344.1 L303.3,222.8 L308.9,296.2
		L314.6,357.5 L320.3,302.3 L325.9,416.7 L331.6,370.3 L337.3,289.3 L343.0,400.0 L348.6,382.3 L354.3,261.3
		L360.0,271.4 L365.6,408.0 L371.3,396.6 L377.0,205.8 L382.6,398.1 L388.3,343.1 L394.0,316.3 L399.6,403.7
		L405.3,418.2 L411.0,333.8 L416.6,363.6 L422.3,401.3 L428.0,196.5 L433.6,326.9 L439.3,382.1 L445.0,235.4
		L450.6,398.7 L456.3,400.9 L462.0,310.0 L467.6,389.9 L473.3,354.5 L479.0,213.1 L484.6,372.0 L490.3,397.2
		L496.0,173.2 L501.6,371.8 L507.3,394.9 L513.0,218.5 L518.6,400.9 L524.3,305.9 L530.0,249.4 L535.7,409.3
		L541.3,383.4 L547.0,301.0 L552.7,389.0 L558.3,352.6 L564.0,341.8 L569.7,324.1 L575.3,407.4 L581.0,332.7
		L586.7,293.4 L592.3,344.8 L598.0,345.7 L603.7,297.3 L609.3,394.0 L615.0,314.6  '/></g>
	</g>
<g fill="none" color="#FFFFFF" stroke="rgb(  0, 158, 115)" stroke-width="2.00" stroke-linecap="butt" stroke-linejoin="miter">
</g>
<g fill="none" color="black" stroke="currentColor" stroke-width="2.00" stroke-linecap="butt" stroke-linejoin="miter">
</g>
<g fill="none" color="black" stroke="black" stroke-width="1.00" stroke-linecap="butt" stroke-linejoin="miter">
</g>
<g fill="none" color="black" stroke="currentColor" stroke-width="1.00" stroke-linecap="butt" stroke-linejoin="miter">
	<path stroke='black'  d='M53.9,18.1 L53.9,428.0 L615.0,428.0 L615.0,18.1 L53.9,18.1 Z  '/></g>
<g fill="none" color="black" stroke="currentColor" stroke-width="1.00" stroke-linecap="butt" stroke-linejoin="miter">
</g>
</g>
</svg>
